!!!SOCIAL_FUNCTION:	songs with contest of physical strength
!!!PDT:	1939
!!!OTL: No__27_Song_Challenging_to_Contest_of_Strength_(c).krn
!!!LANG: Non-Tone
!!!LING_GROUP: Wakashan
!!!REG: Pacific Northwest
**kern
*staff1
=1-
*clefF4
*k[f#]
*M3/4
2r
12B\L
12B\
12B\J
=2
(2c\
8G\)
8r
=3
(2c\
4G\)
=4
(2A\
8E\)
8r
=5||
*M2/4
8A\L
16G\L
16A\JJ
16A\
16r
16A\LL
16A\JJ
=6
8.A\L
16G\Jk
8.E\L
16G\Jk
=7
8A\L
16G\L
16A\JJ
8G\L
16G\L
16G\JJ
=8
16E\
16r
16G\LL
16G\JJ
8A\L
16A\L
16G\JJ
=9
8G\L
8E\J
4r
=10
8G\L
16G\L
16G\JJ
8G\L
16G\L
16G\JJ
=11
2G\
=12
16A\LL
16G\
16G\
16G\JJ
16G\
16r
16G\LL
16G\JJ
=13
16G\
16r
16G\LL
16G\JJ
16A\LL
16G\
16G\JJ
16r
=14
4.G\
16A\LL
32G\JJk
32r
=15
16A\LL
16G\
16G\
16G\JJ
16G\
16r
16G\LL
16G\JJ
=16
4.G\
24A\LL
24G\
24F#\JJ
=17
8G\L
16G\L
16G\JJ
16E\
16r
16G\LL
16G\JJ
=18
16E\
16r
16G\LL
16G\JJ
16A\LL
16G\
16G\JJ
16r
=19
4.G\
16E\
16r
=20!|:
16A\LL
16G\
16G\
16G\JJ
16E\
16r
16G\LL
16G\JJ
=21
4.G\
16E\
16r
=22
16A\LL
16G\
16G\
16G\JJ
16E\
16r
16G\LL
16G\JJ
=23
8E\L
16G\L
16G\JJ
16A\LL
16G\
16G\JJ
16r
=24
4.G\
16E\
16r
==:|!
*-
